img/how-we-are-working-image-four.svg

<svg xmlns="http://www.w3.org/2000/svg" width="93.317" height="2.858cm">
  <path fill="#F49E9C" fill-rule="evenodd" d="M68.506 29.089l-9.34-3.676-.078-.188 4.035-9.289a2.395 2.395 0 0 0-.487-2.633L56.86 7.455a2.322 2.322 0 0 0-2.602-.495l-9.279 4.134-.037-.015-3.675-9.567A2.344 2.344 0 0 0 39.083 0h-8.168c-.967 0-1.834.6-2.185 1.512l-3.674 9.568a.412.412 0 0 0-.037.016l-9.28-4.134a2.323 2.323 0 0 0-2.601.494l-5.776 5.848a2.396 2.396 0 0 0-.488 2.634l4.037 9.289c-.027.062-.052.124-.078.187l-9.34 3.677A2.374 2.374 0 0 0 0 31.303v8.27c0 .979.593 1.857 1.493 2.212l9.192 3.619c.052.133.105.266.16.399l-3.97 9.135a2.397 2.397 0 0 0 .489 2.634l5.776 5.848a2.328 2.328 0 0 0 2.593.497l9.892-4.367v19.077c0 1.31 1.049 2.373 2.343 2.373h14.063c1.295 0 2.344-1.063 2.344-2.373v-19.18l9.874 4.461c.887.4 1.926.206 2.612-.489l5.776-5.848a2.395 2.395 0 0 0 .488-2.634l-3.971-9.136c.055-.132.109-.265.162-.399l9.19-3.619a2.374 2.374 0 0 0 1.493-2.211v-8.271c0-.978-.593-1.857-1.493-2.212zM39.687 47.56v28.694h-9.375V47.56c0-.836-.434-1.61-1.143-2.038a11.637 11.637 0 0 1-2.138-18.189v.985c0 4.449 3.575 8.069 7.969 8.069 4.393 0 7.969-3.62 7.969-8.069v-.985a11.642 11.642 0 0 1 3.437 8.262c0 4.047-2.136 7.851-5.576 9.927a2.38 2.38 0 0 0-1.143 2.038zm25.625-9.612l-8.672 3.416a2.359 2.359 0 0 0-1.363 1.426 21.717 21.717 0 0 1-.807 2.004 2.394 2.394 0 0 0-.022 1.961l3.741 8.608-3.502 3.545-9.827-4.439a2.345 2.345 0 0 0-.485-.157v-5.473c4.175-3.041 6.718-7.997 6.718-13.244 0-6.409-3.732-12.247-9.509-14.872a2.318 2.318 0 0 0-2.233.172 2.383 2.383 0 0 0-1.07 1.993v5.43c0 1.832-1.472 3.322-3.281 3.322-1.809 0-3.282-1.49-3.282-3.322v-5.43c0-.805-.403-1.555-1.07-1.993a2.318 2.318 0 0 0-2.233-.172c-5.777 2.625-9.509 8.463-9.509 14.872 0 5.247 2.543 10.203 6.719 13.244v5.533l-10.3 4.548-3.513-3.556 3.74-8.608a2.402 2.402 0 0 0-.022-1.961c-.3-.65-.573-1.325-.807-2.004a2.364 2.364 0 0 0-1.363-1.426L4.687 37.95v-5.024l8.802-3.466a2.363 2.363 0 0 0 1.349-1.39c.221-.609.476-1.219.755-1.812a2.4 2.4 0 0 0 .029-1.977l-3.811-8.769 3.508-3.552 8.753 3.898a2.315 2.315 0 0 0 1.927-.017c.55-.258 1.111-.492 1.667-.697a2.356 2.356 0 0 0 1.385-1.37l3.467-9.028h4.961l3.469 9.027a2.353 2.353 0 0 0 1.384 1.371c.556.205 1.117.438 1.668.696.61.285 1.311.292 1.926.018l8.753-3.899 3.508 3.552-3.81 8.77a2.402 2.402 0 0 0 .029 1.976c.278.591.532 1.2.754 1.812a2.368 2.368 0 0 0 1.351 1.391l8.801 3.464v5.024z"/>
</svg>

<svg
 xmlns="http://www.w3.org/2000/svg"
 xmlns:xlink="http://www.w3.org/1999/xlink"
 width="2.469cm" height="2.858cm">
<path fill-rule="evenodd"  fill="rgb(244, 158, 156)"
 d="M68.506,29.089 L59.166,25.413 C59.139,25.349 59.114,25.287 59.088,25.225 L63.123,15.936 C63.512,15.040 63.319,13.995 62.636,13.303 L56.860,7.455 C56.176,6.762 55.144,6.566 54.258,6.960 L44.979,11.094 C44.967,11.090 44.954,11.084 44.942,11.079 L41.267,1.512 C40.917,0.600 40.049,-0.000 39.083,-0.000 L30.915,-0.000 C29.948,-0.000 29.081,0.600 28.730,1.512 L25.056,11.080 C25.043,11.085 25.031,11.090 25.019,11.096 L15.739,6.962 C14.855,6.568 13.821,6.764 13.138,7.456 L7.362,13.304 C6.679,13.996 6.485,15.041 6.874,15.938 L10.911,25.227 C10.884,25.289 10.859,25.351 10.833,25.414 L1.493,29.091 C0.593,29.446 -0.000,30.325 -0.000,31.303 L-0.000,39.573 C-0.000,40.552 0.593,41.430 1.493,41.785 L10.685,45.404 C10.737,45.537 10.790,45.670 10.845,45.803 L6.875,54.938 C6.487,55.834 6.680,56.880 7.364,57.572 L13.140,63.420 C13.588,63.874 14.188,64.115 14.797,64.115 C15.113,64.115 15.432,64.050 15.733,63.917 L25.625,59.550 L25.625,78.627 C25.625,79.937 26.674,81.000 27.968,81.000 L42.031,81.000 C43.326,81.000 44.375,79.937 44.375,78.627 L44.375,59.447 L54.249,63.908 C55.136,64.308 56.175,64.114 56.861,63.419 L62.637,57.571 C63.321,56.879 63.514,55.833 63.125,54.937 L59.154,45.801 C59.209,45.669 59.263,45.536 59.316,45.402 L68.506,41.783 C69.405,41.428 69.999,40.550 69.999,39.572 L69.999,31.301 C69.999,30.323 69.406,29.444 68.506,29.089 L68.506,29.089 ZM39.687,47.560 L39.687,76.254 L30.312,76.254 L30.312,47.560 C30.312,46.724 29.878,45.950 29.169,45.522 C25.730,43.446 23.594,39.642 23.594,35.595 C23.594,32.435 24.873,29.471 27.031,27.333 L27.031,28.318 C27.031,32.767 30.606,36.387 35.000,36.387 C39.393,36.387 42.969,32.767 42.969,28.318 L42.969,27.333 C45.126,29.471 46.406,32.435 46.406,35.595 C46.406,39.642 44.270,43.446 40.830,45.522 C40.122,45.950 39.687,46.724 39.687,47.560 L39.687,47.560 ZM65.312,37.948 L56.640,41.364 C56.001,41.615 55.504,42.136 55.277,42.790 C55.042,43.469 54.771,44.143 54.470,44.794 C54.183,45.414 54.175,46.129 54.448,46.755 L58.189,55.363 L54.687,58.908 L44.860,54.469 C44.702,54.398 44.539,54.346 44.375,54.312 L44.375,48.839 C48.550,45.798 51.093,40.842 51.093,35.595 C51.093,29.186 47.361,23.348 41.584,20.723 C40.859,20.393 40.019,20.458 39.351,20.895 C38.684,21.333 38.281,22.083 38.281,22.888 L38.281,28.318 C38.281,30.150 36.809,31.640 35.000,31.640 C33.191,31.640 31.718,30.150 31.718,28.318 L31.718,22.888 C31.718,22.083 31.315,21.333 30.648,20.895 C29.981,20.458 29.140,20.393 28.415,20.723 C22.638,23.348 18.906,29.186 18.906,35.595 C18.906,40.842 21.449,45.798 25.625,48.839 L25.625,54.372 L15.325,58.920 L11.812,55.364 L15.552,46.756 C15.824,46.130 15.816,45.415 15.530,44.795 C15.230,44.145 14.957,43.470 14.723,42.791 C14.496,42.138 13.998,41.616 13.360,41.365 L4.687,37.950 L4.687,32.926 L13.489,29.460 C14.114,29.213 14.605,28.708 14.838,28.070 C15.059,27.461 15.314,26.851 15.593,26.258 C15.886,25.634 15.897,24.913 15.622,24.281 L11.811,15.512 L15.319,11.960 L24.072,15.858 C24.687,16.133 25.389,16.126 25.999,15.841 C26.549,15.583 27.110,15.349 27.666,15.144 C28.302,14.911 28.806,14.411 29.051,13.774 L32.518,4.746 L37.479,4.746 L40.948,13.773 C41.192,14.411 41.697,14.911 42.332,15.144 C42.888,15.349 43.449,15.582 44.000,15.840 C44.610,16.125 45.311,16.132 45.926,15.858 L54.679,11.959 L58.187,15.511 L54.377,24.281 C54.103,24.913 54.113,25.634 54.406,26.257 C54.684,26.848 54.938,27.457 55.160,28.069 C55.394,28.707 55.885,29.213 56.511,29.460 L65.312,32.924 L65.312,37.948 Z"/>
</svg>
